modules/hawcons-filled/icons/icon-39-clipboard-text.svg

<?xml version="1.0" encoding="UTF-8" standalone="no"?>
<svg width="32px" height="32px" viewBox="0 0 32 32" version="1.1" xmlns="http://www.w3.org/2000/svg" xmlns:xlink="http://www.w3.org/1999/xlink" xmlns:sketch="http://www.bohemiancoding.com/sketch/ns">
    <!-- Generator: Sketch 3.0.3 (7891) - http://www.bohemiancoding.com/sketch -->
    <title>icon 39 clipboard text</title>
    <desc>Created with Sketch.</desc>
    <defs></defs>
    <g id="Page-1" stroke="none" stroke-width="1" fill="none" fill-rule="evenodd" sketch:type="MSPage">
        <g id="icon-39-clipboard-text" sketch:type="MSArtboardGroup" fill="#929292">
            <path d="M14,4 L14,2.99791312 C14,1.89826062 14.897616,1 16.0048815,1 L16.9951185,1 C18.1061002,1 19,1.89449617 19,2.99791312 L19,4 L21.0044225,4 C21.555163,4 22,4.44724809 22,4.99895656 L22,6.00104344 C22,6.55733967 21.5542648,7 21.0044225,7 L11.9955775,7 C11.444837,7 11,6.55275191 11,6.00104344 L11,4.99895656 C11,4.44266033 11.4457352,4 11.9955775,4 L14,4 L14,4 Z M22.9999942,5 L24.0025781,5 C25.1090746,5 26,5.89703997 26,7.00359486 L26,27.9964051 C26,29.1102368 25.1057238,30 24.0025781,30 L8.99742191,30 C7.89092539,30 7,29.10296 7,27.9964051 L7,7.00359486 C7,5.88976324 7.89427625,5 8.99742191,5 L10.0000058,5 C10.0000019,5.0016267 10,5.00325387 10,5.0048815 L10,5.9951185 C10,7.10238398 10.8935426,8 12.0027601,8 L20.9972399,8 C22.1033337,8 23,7.1061002 23,5.9951185 L23,5.0048815 C23,5.00325388 22.9999981,5.00162671 22.9999942,5 L22.9999942,5 L22.9999942,5 Z M16.5,4 C16.7761424,4 17,3.77614239 17,3.5 C17,3.22385761 16.7761424,3 16.5,3 C16.2238576,3 16,3.22385761 16,3.5 C16,3.77614239 16.2238576,4 16.5,4 L16.5,4 Z M10,12 L10,13 L23,13 L23,12 L10,12 L10,12 Z M10,15 L10,16 L23,16 L23,15 L10,15 L10,15 Z M10,18 L10,19 L23,19 L23,18 L10,18 L10,18 Z M10,21 L10,22 L23,22 L23,21 L10,21 L10,21 Z M10,24 L10,25 L23,25 L23,24 L10,24 L10,24 Z" id="clipboard-text" sketch:type="MSShapeGroup"></path>
        </g>
    </g>
</svg>

<svg width="32" height="32" xmlns="http://www.w3.org/2000/svg"><path d="M14 4V2.998C14 1.898 14.898 1 16.005 1h.99C18.106 1 19 1.894 19 2.998V4h2.004c.551 0 .996.447.996.999v1.002a.994.994 0 0 1-.996.999h-9.008A.997.997 0 0 1 11 6.001V4.999c0-.556.446-.999.996-.999H14zm9 1h1.003C25.109 5 26 5.897 26 7.004v20.992A1.996 1.996 0 0 1 24.003 30H8.997A1.998 1.998 0 0 1 7 27.996V7.004C7 5.89 7.894 5 8.997 5H10v.995C10 7.102 10.894 8 12.003 8h8.994A2.001 2.001 0 0 0 23 5.995v-.99V5zm-6.5-1a.5.5 0 1 0 0-1 .5.5 0 0 0 0 1zM10 12v1h13v-1H10zm0 3v1h13v-1H10zm0 3v1h13v-1H10zm0 3v1h13v-1H10zm0 3v1h13v-1H10z" fill="#929292" fill-rule="evenodd"/></svg>
